storage/app/icons/tabler/filled/circle-arrow-down-right.svg

<!--
version: "2.3"
unicode: "f6f7"
-->
<svg
  xmlns="http://www.w3.org/2000/svg"
  width="24"
  height="24"
  viewBox="0 0 24 24"
  fill="currentColor"
>
  <path d="M17 3.34a10 10 0 1 1 -14.995 8.984l-.005 -.324l.005 -.324a10 10 0 0 1 14.995 -8.336zm-2 4.66l-.117 .007a1 1 0 0 0 -.883 .993v3.585l-4.293 -4.292l-.094 -.083a1 1 0 0 0 -1.32 1.497l4.292 4.293h-3.585l-.117 .007a1 1 0 0 0 .117 1.993l6.034 .001a.998 .998 0 0 0 .186 -.025l.053 -.014l.066 -.02l.13 -.059l.093 -.055a.98 .98 0 0 0 .438 -.828v-6l-.007 -.117a1 1 0 0 0 -.993 -.883z" />
</svg>

<svg xmlns="http://www.w3.org/2000/svg" width="24" height="24" fill="currentColor" viewBox="0 0 24 24"><path d="M17 3.34a10 10 0 1 1-14.995 8.984L2 12l.005-.324A10 10 0 0 1 17 3.34M15 8l-.117.007A1 1 0 0 0 14 9v3.585L9.707 8.293l-.094-.083a1 1 0 0 0-1.32 1.497L12.585 14H9l-.117.007A1 1 0 0 0 9 16l6.034.001a1 1 0 0 0 .186-.025l.053-.014.066-.02.13-.059.093-.055A.98.98 0 0 0 16 15V9l-.007-.117A1 1 0 0 0 15 8"/></svg>
